bundle/image/pages/result/explain/img/strip-symbol.svg

<svg width="221" height="44" viewBox="0 0 221 44" fill="none" xmlns="http://www.w3.org/2000/svg">
<path d="M0.221246 43.8401H-14.0267L-44 0H-29.7281L0.221246 43.8401Z" fill="#989898"/>
<path d="M22.2364 43.8401H7.98835L-21.9849 0H-7.71305L22.2364 43.8401Z" fill="#989898"/>
<path d="M44.2515 43.8401H29.9797L0.0302734 0H14.3021L44.2515 43.8401Z" fill="#989898"/>
<path d="M66.2671 43.8401H51.9953L22.0459 0H36.2939L66.2671 43.8401Z" fill="#989898"/>
<path d="M88.2583 43.8401H74.0103L44.0371 0H58.3089L88.2583 43.8401Z" fill="#989898"/>
<path d="M110.274 43.8401H96.026L66.0527 0H80.3246L110.274 43.8401Z" fill="#989898"/>
<path d="M132.289 43.8401H118.017L88.0679 0H102.34L132.289 43.8401Z" fill="#989898"/>
<path d="M154.305 43.8401H140.033L110.083 0H124.332L154.305 43.8401Z" fill="#989898"/>
<path d="M176.296 43.8401H162.048L132.075 0H146.347L176.296 43.8401Z" fill="#989898"/>
<path d="M198.312 43.8401H184.04L154.09 0H168.362L198.312 43.8401Z" fill="#989898"/>
<path d="M220.327 43.8401H206.055L176.105 0H190.377L220.327 43.8401Z" fill="#989898"/>
</svg>

<svg width="221" height="44" fill="none" xmlns="http://www.w3.org/2000/svg"><path d="M.221 43.84h-14.248L-44 0h14.272L.222 43.84zM22.236 43.84H7.988L-21.985 0h14.272l29.95 43.84zM44.252 43.84H29.98L.03 0h14.272l29.95 43.84zM66.267 43.84H51.995L22.045 0h14.249l29.973 43.84zM88.258 43.84H74.01L44.037 0H58.31l29.95 43.84zM110.274 43.84H96.026L66.053 0h14.272l29.949 43.84zM132.289 43.84h-14.272L88.067 0h14.273l29.949 43.84zM154.305 43.84h-14.272L110.083 0h14.249l29.973 43.84zM176.296 43.84h-14.248L132.075 0h14.272l29.949 43.84zM198.312 43.84H184.04L154.09 0h14.272l29.95 43.84zM220.327 43.84h-14.272L176.105 0h14.272l29.95 43.84z" fill="#989898"/></svg>
